X:1
T:1867, Polska efter Alfred Nilsson
R:Polska
O:Marsvik, Vilhelmina, Västerbotten
S:Burträskar'a
L:1/8
Q:1/4=140
M:3/4
K:Dm
Z:ABC-transkr. av Steve Simpson
A2 (a>=b) a>g | e>(e (3g)eg a2 | A2 (a>=b) a>(g | f>)e (d/^c/)d/e/ d2"^Fine" ::$ a2 (3fga (3fga | 
(3agf (3efg (3efg | (3gfe (3def (3def | .[df].[df] .[^ce].[ce] A2 |$ a2 (3fga (3fga | 
(3agf (3efg (3efg | (3g(eg) a>g f>e | d2 d4"^D.C. al Fine" |]

